X:277
T: Nightingale
N: O'Farrell's Pocket Companion v.3 (Sky ed. p.126)
M: 2/4
L: 1/8
Q: 160
K: G
D| G>BAF| GBd2| GBAF | GBd2| BBc2| BBc2| B/d/g/f/ e/d/c/B/|
AAA :|
P:2
z|d3^c| d3^c| df a/g/f/e/| ddde/f/| g3d| B3d| BA/G/ B/G/B/d/| ggg :|
P:3
z| {c}d2{c}d2| {c}d2{c}d2| {c}d{c}d{c}d{c}d| {c}d{c}d {c}d2|
G/B/d/B/ G/B/d/B/| G/B/d/B/ G/B/d/B/| cd e/d/e/f/| ggg :|
P:4
z| d4-|d4-|d4-|d4| B/G/c/d/ B/G/c/d/| B/G/c/d/ B/G/c/d/|
cd e/d/e/f/| ggg :|
P:5
z| .B.c.d.e| .d.^c.d.B| .A.B.c.d| .c.B.c.A|  .B.c.d.e| .d.^c.d.B|
.c.d.e.f ggg :|
